public/avatar/item1/34.svg

<svg xmlns:xlink="http://www.w3.org/1999/xlink" height="65.4" width="80.15" xmlns="http://www.w3.org/2000/svg"><use height="19.1" transform="translate(13.4 24.3)" width="36.55" xlink:href="#a"/><defs><g id="a" fill-rule="evenodd"><path d="m9.2 18.5 2.55-.35-.65.15h.05l.6-.1 2.05-.95.9-.85v.2l.75.9 1.25 2 .5.95-.75.9-1.9 1.65q-.85.55-1.75 1.05l-.3.05q-1.75.7-3.3.85H9l-.1.05h-.2l.05 1.7Q6.9 28.25 0 28.3h-.7q-5.15-.1-7.15-1.3l-.05-.15-.05-.75-.1-.35v-.2h-.15l-.25-.05-3.65-.6q-2-.6-3.4-1.55l-.65-.45v.1l-.5-.4-.05-.05-.25-.35-.2-.25v-.05l-.1-.15.65-1.8.05-.05.2-.45.45-.65.5-1q.05-.75.6-.75.4 0 .5.4 1.8.9 3.7 1.3v-.05l2.05.2 1.6-.1q1.3-.3 2.4-.95 1.6-1 2.8-2.65 1-1.4 1.35-2.6l.05.2q1.85 4 6.05 5.3l2.1.35 1.4.05" fill="#fe81d9" fill-opacity=".6" transform="translate(18.2 -10.5)"/><path d="m14.35 14.95.5.05q1.2 1.05 2.65 3.75l.75 1.35.1.35-.1.4q-3.2 4.5-8.55 5.25v.85l-.15.65Q7.9 29.3 1.1 29.55q-6.95.25-9.65-1.6l-.25-.35-.1-.95q-6.85-.3-9.2-4.2l-.1-.35V22q.15-1.5 1.4-3.85l1.3-2.2.55-.15Q-8.9 19-5 16.7q3.65-2.1 4.05-5.75.2-.45.5-.45.4 0 .45.35 2.1 6.95 9.8 6.35 4-.3 4.25-1.8l.3-.45m2.85 5.45-.5-.95q-1.35-2.25-2.1-3-1.2 1.7-4.75 2-7.45.6-10.25-5.85-1.45 3.65-4.15 5.2-4.2 2.55-10.4-.75-1.9 2.9-2.2 4.85 2.45 3.45 8.7 3.55.4 0 .5.65l.1.85Q-5.35 28.4.9 28.3q6.1-.2 7.85-1.6l-.05-.5.05-.65q0-.65.45-.65 4.95-.5 8-4.5" fill="#49022e" transform="translate(18.2 -10.5)"/><path d="M7.8 18.45q.85 1.6 1.1 6.55h-.2l.05 1.7Q6.9 28.25 0 28.3h-.7q1.7-8.65.35-15.5 1.85 4 6.05 5.3l2.1.35m6.9-2.05v.2l.75.9 1.25 2 .5.95-.75.9-1.9 1.65q-.85.55-1.75 1.05l-.45.05q-.1-3.6-1.25-5.8l.65-.1 2.05-.95.9-.85m-21.65 2.4q-.1 4.5-1.15 6.75h-.1l-.25-.05-3.65-.6q1.3-2.85 1.5-6.2l2.05.2 1.6-.1" fill="#912176" fill-opacity=".502" transform="translate(18.2 -10.5)"/><path d="M-.95 15v.4Q-1 17.05-2.7 18.65q-1.45 1.3-2.55 1.45l-1.05.05-.2-.45v-.1q.1-.6.55-.6 1.35 0 2.9-1.3 1.75-1.55 2.1-2.7m10.2 9.65-.1-2.05-.25-1.65-.4-1.75v-.15q.55.65 1 2.55l.35 1.55.2 1.45-.8.05" fill="#ffe0fb" transform="translate(18.2 -10.5)"/><path d="m-16.6 19.95.05-.1.2-.4.45-.65.05.05-.35 2.25v.2l.05 1.7-.5-.4-.05-.05-.55-.8.65-1.8" fill="#f9d5e6" transform="translate(18.2 -10.5)"/><path d="M-17.6 13.9q0-2 2.05-2t2.05 2q0 2-2.05 2t-2.05-2" fill="#0f0801" transform="translate(18.2 -10.5)"/><path d="M-14 13.9q0 1.5-1.55 1.5t-1.55-1.5q0-1.5 1.55-1.5t1.55 1.5" fill="#f8c606" transform="translate(18.2 -10.5)"/><path d="M-17.1 13.9q.2 1 1.2 1 1.25 0 1.25-1.2t-1.25-1.2l.35-.1q1.55 0 1.55 1.5t-1.55 1.5q-1.55 0-1.55-1.5" fill="#b57a06" transform="translate(18.2 -10.5)"/><path d="M12.6 13.4q0-2 2.05-2t2.05 2q0 2-2.05 2t-2.05-2" fill="#0f0801" transform="translate(18.2 -10.5)"/><path d="M16.2 13.4q0 1.5-1.55 1.5t-1.55-1.5q0-1.5 1.55-1.5t1.55 1.5" fill="#f8c606" transform="translate(18.2 -10.5)"/><path d="M14.65 11.9q1.55 0 1.55 1.5t-1.55 1.5q-1.55 0-1.55-1.5.25.95 1.2.95 1.25 0 1.25-1.15 0-1.2-1.25-1.2l-.35.05.7-.15" fill="#b57a06" transform="translate(18.2 -10.5)"/><path d="M14.75 13.05q0 .75-.7.75-.75 0-.75-.75t.75-.75q.7 0 .7.75m-30.2.55q0 .75-.7.75-.75 0-.75-.75t.75-.75q.7 0 .7.75" fill="#fff" transform="translate(18.2 -10.5)"/></g></defs></svg>

<?xml version="1.0" encoding="UTF-8" standalone="no"?>
<svg xmlns:xlink="http://www.w3.org/1999/xlink" height="65.4px" width="80.15px" xmlns="http://www.w3.org/2000/svg">
  <g transform="matrix(1.0, 0.0, 0.0, 1.0, 31.6, 13.8)">
    <use height="19.1" transform="matrix(1.0, 0.0, 0.0, 1.0, -18.2, 10.5)" width="36.55" xlink:href="#shape0"/>
  </g>
  <defs>
    <g id="shape0" transform="matrix(1.0, 0.0, 0.0, 1.0, 18.2, -10.5)">
      <path d="M9.2 18.5 L11.75 18.15 11.1 18.3 11.15 18.3 11.75 18.2 13.8 17.25 14.7 16.4 14.7 16.6 15.45 17.5 16.7 19.5 17.2 20.45 16.45 21.35 14.55 23.0 Q13.7 23.55 12.8 24.05 L12.5 24.1 Q10.75 24.8 9.2 24.95 L9.0 24.95 8.9 25.0 8.7 25.0 8.75 26.7 Q6.9 28.25 0.0 28.3 L-0.7 28.3 Q-5.85 28.2 -7.85 27.0 L-7.9 26.85 -7.95 26.1 -8.05 25.75 -8.05 25.55 -8.2 25.55 -8.45 25.5 -12.1 24.9 Q-14.1 24.3 -15.5 23.35 L-16.15 22.9 -16.15 23.0 -16.65 22.6 -16.7 22.55 -16.95 22.2 -17.15 21.95 -17.15 21.9 -17.25 21.75 -16.6 19.95 -16.55 19.9 -16.35 19.45 -15.9 18.8 -15.4 17.8 Q-15.35 17.05 -14.8 17.05 -14.4 17.05 -14.3 17.45 -12.5 18.35 -10.6 18.75 L-10.6 18.7 -8.55 18.9 -6.95 18.8 Q-5.65 18.5 -4.55 17.85 -2.95 16.85 -1.75 15.2 -0.75 13.8 -0.4 12.6 L-0.35 12.8 Q1.5 16.8 5.7 18.1 L7.8 18.45 9.2 18.5" fill="#fe81d9" fill-opacity="0.6" fill-rule="evenodd" stroke="none"/>
      <path d="M14.35 14.95 L14.85 15.0 Q16.05 16.05 17.5 18.75 L18.25 20.1 18.35 20.45 18.25 20.85 Q15.05 25.35 9.7 26.1 L9.7 26.95 9.55 27.6 Q7.9 29.3 1.1 29.55 -5.85 29.8 -8.55 27.95 L-8.8 27.6 -8.9 26.65 Q-15.75 26.35 -18.1 22.45 L-18.2 22.1 -18.2 22.0 Q-18.05 20.5 -16.8 18.15 L-15.5 15.95 -14.95 15.8 Q-8.9 19.0 -5.0 16.7 -1.35 14.6 -0.95 10.95 -0.75 10.5 -0.45 10.5 -0.05 10.5 0.0 10.85 2.1 17.8 9.8 17.2 13.8 16.9 14.05 15.4 L14.35 14.95 M17.2 20.4 L16.7 19.45 Q15.35 17.2 14.6 16.45 13.4 18.15 9.85 18.45 2.4 19.05 -0.4 12.6 -1.85 16.25 -4.55 17.8 -8.75 20.35 -14.95 17.05 -16.85 19.95 -17.15 21.9 -14.7 25.35 -8.45 25.45 -8.05 25.45 -7.95 26.1 L-7.85 26.95 Q-5.35 28.4 0.9 28.3 7.0 28.1 8.75 26.7 L8.7 26.2 8.75 25.55 Q8.75 24.9 9.2 24.9 14.15 24.4 17.2 20.4" fill="#49022e" fill-rule="evenodd" stroke="none"/>
      <path d="M7.8 18.45 Q8.65 20.05 8.9 25.0 L8.7 25.0 8.75 26.7 Q6.9 28.25 0.0 28.3 L-0.7 28.3 Q1.0 19.65 -0.35 12.8 1.5 16.8 5.7 18.1 L7.8 18.45 M14.7 16.4 L14.7 16.6 15.45 17.5 16.7 19.5 17.2 20.45 16.45 21.35 14.55 23.0 Q13.7 23.55 12.8 24.05 L12.35 24.1 Q12.25 20.5 11.1 18.3 L11.75 18.2 13.8 17.25 14.7 16.4 M-6.95 18.8 Q-7.05 23.3 -8.1 25.55 L-8.2 25.55 -8.45 25.5 -12.1 24.9 Q-10.8 22.05 -10.6 18.7 L-8.55 18.9 -6.95 18.8" fill="#912176" fill-opacity="0.5019608" fill-rule="evenodd" stroke="none"/>
      <path d="M-0.95 15.0 L-0.95 15.4 Q-1.0 17.05 -2.7 18.65 -4.15 19.95 -5.25 20.1 L-6.3 20.15 -6.5 19.7 -6.5 19.6 Q-6.4 19.0 -5.95 19.0 -4.6 19.0 -3.05 17.7 -1.3 16.15 -0.95 15.0" fill="#ffe0fb" fill-rule="evenodd" stroke="none"/>
      <path d="M9.25 24.65 L9.15 22.6 8.9 20.95 8.5 19.2 8.5 19.05 Q9.05 19.7 9.5 21.6 L9.85 23.15 10.05 24.6 9.25 24.65" fill="#ffe0fb" fill-rule="evenodd" stroke="none"/>
      <path d="M-16.6 19.95 L-16.55 19.85 -16.35 19.45 -15.9 18.8 -15.85 18.85 -16.2 21.1 -16.2 21.3 -16.15 23.0 -16.65 22.6 -16.7 22.55 -17.25 21.75 -16.6 19.95" fill="#f9d5e6" fill-rule="evenodd" stroke="none"/>
      <path d="M-17.6 13.9 Q-17.6 11.9 -15.55 11.9 -13.5 11.9 -13.5 13.9 -13.5 15.9 -15.55 15.9 -17.6 15.9 -17.6 13.9" fill="#0f0801" fill-rule="evenodd" stroke="none"/>
      <path d="M-14.0 13.9 Q-14.0 15.4 -15.55 15.4 -17.1 15.4 -17.1 13.9 -17.1 12.4 -15.55 12.4 -14.0 12.4 -14.0 13.9" fill="#f8c606" fill-rule="evenodd" stroke="none"/>
      <path d="M-17.1 13.9 Q-16.9 14.9 -15.9 14.9 -14.65 14.9 -14.65 13.7 -14.65 12.5 -15.9 12.5 L-15.55 12.4 Q-14.0 12.4 -14.0 13.9 -14.0 15.4 -15.55 15.4 -17.1 15.4 -17.1 13.9" fill="#b57a06" fill-rule="evenodd" stroke="none"/>
      <path d="M12.6 13.4 Q12.6 11.4 14.65 11.4 16.7 11.4 16.7 13.4 16.7 15.4 14.65 15.4 12.6 15.4 12.6 13.4" fill="#0f0801" fill-rule="evenodd" stroke="none"/>
      <path d="M16.2 13.4 Q16.2 14.9 14.65 14.9 13.1 14.9 13.1 13.4 13.1 11.9 14.65 11.9 16.2 11.9 16.2 13.4" fill="#f8c606" fill-rule="evenodd" stroke="none"/>
      <path d="M14.65 11.9 Q16.2 11.9 16.2 13.4 16.2 14.9 14.65 14.9 13.1 14.9 13.1 13.4 13.35 14.35 14.3 14.35 15.55 14.35 15.55 13.2 15.55 12.0 14.3 12.0 L13.95 12.05 14.65 11.9" fill="#b57a06" fill-rule="evenodd" stroke="none"/>
      <path d="M14.75 13.05 Q14.75 13.8 14.05 13.8 13.3 13.8 13.3 13.05 13.3 12.3 14.05 12.3 14.75 12.3 14.75 13.05" fill="#ffffff" fill-rule="evenodd" stroke="none"/>
      <path d="M-15.45 13.6 Q-15.45 14.35 -16.15 14.35 -16.9 14.35 -16.9 13.6 -16.9 12.85 -16.15 12.85 -15.45 12.85 -15.45 13.6" fill="#ffffff" fill-rule="evenodd" stroke="none"/>
    </g>
  </defs>
</svg>
